X:1
T:Our Risen Savior!
T:Our Risen Savior!
T:Alonzo Judson Abbey
T:Eden Reeder Latta, 1886
T:Public Domain Courtesy of the Cyber Hymnal™
T:Public Domain Courtesy of the Cyber Hymnal™
C:Alonzo Judson Abbey
Z:Public Domain
Z:Courtesy of the Cyber Hymnal™
%%score ( 1 2 ) ( 3 4 )
L:1/8
Q:1/4=85
M:3/4
K:Ab
V:1 treble 
V:2 treble 
V:3 bass 
V:4 bass 
V:1
 [Ec]>[=D=B] | [Ec]3 [CE] (3(GF)[DE] | [CE]2 [CA]2 [Ec]>[=D=B] | [Ec]3 [CE] (3(GF)[DE] | %4
w: 1.~To the|tomb so chill * and|lone- ly, Friend- ly|hands the Sav- * ior|
w: 2.~Je- sus|had to His * dis-|ci- ples Clear- ly|His own death * fore-|
w: 3.~Je- sus|has in truth * a-|ris- en, He was|seen to ma- * ny|
 [CA]4 [Ec]>[=D=B] | [Ec]3 [CE] (3(GF)[DE] | [CE]2 [CA]2 [DB][Ec] | [Fd][DB] A2 G2 | %8
w: bore; When His|foes had cru- * ci-|fied Him, And when|they could mock no|
w: told; And that|death had pow- * er|on- ly For three|days His form to|
w: eyes; And He|lives, our Me- * di-|at- or, In the|heav’n- ly par- a-|
 [CA]4 [GB]>[^F=A] | [GB]2 E2 (3(EA)[GB] | [Ac]2 [Ac]2 [GB]>[^F=A] | [GB]3 E [GB][Ac] | %12
w: more, Then a|guard of Ro- * man|sol- diers By the|spot were made to|
w: hold; And just|when the time * was|end- ed, Lo! new|life the Sav- ior|
w: dise; We shall|live be- cause * He|liv- eth, We shall|see His bless- èd|
 [Gd]4 [Ec]>[=D=B] | [Ec]3 [CE] (3(GF)[DE] | [CE]2 [EA]2 [FB][Fc] | [Fd][FB] [EA]2 [EG]2 | [EA]4 || %17
w: stay, Lest, they|said, that His * dis-|ci- ples Should His|bo- dy take a-|way!|
w: found, And the|sol- diers all * were|fright- ened, And like|dead men fell a-|round.|
w: face, Thro’ the|flight of end- * less|ag- es, Sin- ners|saved by match- less|grace.|
"^Refrain" (3(ef)[Ae] | [Ae]2 E2 (3([CE]{g}[EA])[EB] x3/4 | [Ec]2 [Ae]2 (3(ef)[Ae] | %20
w: Might- * y|Sav- ior! We * a-|dore Thee, We * Thy|
w: |||
w: |||
 [Ae][Ac] (Be) ([Fe][A=d]) | [Ge]4 (3([Ec]3/2{c'}[=D=B]/)[F=d] | %22
w: re- sur- rect- * ion *|own; We * will|
w: ||
w: ||
 [Ec]2 [CA]2 (3([CE][EA])[EB] x3/4 | [Ec]2 [_Ge]2 [FB][Fc] | [Fd][FB] [EA]2 [EG]2 | %25
w: love, and we * will|serve Thee, We will|make Thy good- ness|
w: |||
w: |||
 !fermata![EA]4 |] %26
w: known.|
w: |
w: |
V:2
 x2 | x4 D2 | x6 | x4 D2 | x6 | x4 D2 | x6 | x2 (CB,) (B,D) | x6 | x2 E2 E2 | x6 | x3 E x2 | x6 | %13
 x4 D2 | x6 | x6 | x4 || A2 | x2 E2 x11/4 | x4 A2 | x2 G2 x2 | x6 | x27/4 | x6 | x6 | x4 |] %26
V:3
 A,2 | A,,2 A,2 (3:2:2[E,B,]2 [E,G,] | A,,2 A,2 A,2 | A,,2 A,2 (3:2:2[E,B,]2 [E,G,] | %4
 A,,2 A,2 A,2 | A,,2 A,2 (3:2:2[E,B,]2 [E,G,] | A,,2 A,2 D,C, | B,,D, E,2 E,2 | A,,4 [E,D]>[E,C] | %9
 [E,D]2 [E,D]2 (3:2:2[E,C]2 [E,E] | [A,E]2 [A,E]2 [E,C]>[E,C] | [E,D]3 [E,D] [E,D][E,C] | %12
 [E,B,]4 A,>A, | A,2 A,2 (3:2:2[E,B,]2 [E,G,] | A,2 [_A,C]2 [D,B,][C,=A,] | %15
 [B,,B,][D,B,] (CB,) (B,D) | [A,,E]4 || (3(CD)[A,C] | [A,C]2 [A,C]2 A,2 (3:2:1[E,G,] x/12 | %19
 A,2 [A,C]2 (3(CD)[A,C] | [A,C][A,E] [B,E]2 [B,,B,]2 | [E,B,]4 [A,,A,]>[A,,A,] | %22
 [A,,A,]2 [A,,A,]2 A,2 (3:2:1[E,G,] x/12 | A,2 [C,=A,]2 [D,B,][C,A,] | [B,,B,][D,B,] (CB,) (B,D) | %25
 !fermata![A,,C]4 |] %26
V:4
 x2 | x6 | x6 | x6 | x6 | x6 | x6 | x6 | x6 | x6 | x6 | x6 | x4 A,>A, | A,2 A,2 x2 | =A,2 x4 | %15
 x2 E,2 E,2 | x4 || A,2 | x4 (3:2:2(A,,{G,,}C,) x17/12 | A,2 A,2 x2 | x6 | x6 | %22
 x4 (3:2:2(A,,C,) x17/12 | =A,2 x4 | x2 E,2 E,2 | x4 |] %26

